X:1
T:Étude op. 30 no 2
T:Joachim Andersen
L:1/8
Q:3/8=66
M:3/8
K:C
V:1 treble nm="Flûte" snm="Fl."
V:1
"^Allegretto"!p! A"_con grazia"(e/f/e/a/ |!<(! ^g/B/d/e/g/b/)!<)! |!>(! (a/f'/e'/c'/a/e/ | %3
 c/!>)!b/a/e/c/A/) | .B/(E/F/E/)(d/E/) | (c/A/)(B/G/)(A/F/) |!<(! .^G/(E/G/B/d/e/!<)! | %7
!>(! =g/f/e/d/c/B/)!>)! |!p! .A(e/f/e/a/ |!<(! ^g/B/d/e/g/b/)!<)! |!>(! (a/f'/e'/c'/a/e/!>)! | %11
 c/b/a/e/c/A/) | .G/!<(!(B/c/B/)(g/B/) | (^A/g/)(e/g/)(^d/!<)!^f/) |!>(! .e/.e/(^d/e/)(=d/e/) | %15
 (^c/e/)!>)!(=c/e/)(B/e/) |!p! .A(e/f/e/a/ |!<(! ^g/B/d/e/g/b/)!<)! |!>(! (a/f'/e'/c'/a/e/ | %19
 c/!>)!b/a/e/c/A/) | .B/(E/F/E/)(d/E/) | (c/A/)(B/G/)(A/F/) | .^G/!<(!(E/G/B/d/e/!<)! | %23
!>(! =g/f/e/d/c/!>)!B/) | .A(e/f/e/a/ |!<(! ^g/B/d/e/g/b/)!<)! |!>(! (a/f'/e'/c'/a/e/!>)! | %27
 c/b/a/e/c/A/) | .G/!<(!(B/c/B/)(g/B/) | (^A/g/)(e/g/)(^d/^f/)!<)! | .e/.e/"_cresc."(f/e/)(^f/e/) | %31
 (g/e/)(^g/e/)(a/e/) |!mf! .b(d'/b/^g/e/ | f/e/d/B/^G/E/) | (F/A/B/d/)(A/B/ | d/f/)(B/d/f/a/ | %36
 ^g/)(b/d'/b/g/e/ | f/e/d/B/^G/E/) | (F/A/B/d/)(A/B/ | d/f/)(B/d/f/a/ | ^g/)(e/f/e/)(b/e/) | %41
 (f/e/)(a/e/c/A/) |"_cresc." .b/(e/f/e/)(d'/e/) | (f/e/)(c/e/a/c'/) |!f! .f'/(a/b/a/)!>(!(e'/a/) | %45
 (f/a/)(d'/a/)(c'/a/) | .b/(e/f/e/)(a/^d/)!>)! |!p! .^g/!<(!(E/^G/B/e/g/!<)! | b)!mf!(d'/b/^g/e/ | %49
 f/e/d/B/^G/E/) | (F/A/B/d/)(A/B/ | d/f/)(B/d/f/a/ | ^g/)(b/d'/b/g/e/ | f/e/d/B/^G/E/) | %54
 (F/A/B/d/)(A/B/ | d/f/)(B/d/f/a/ | ^g/)(e/f/e/)(b/e/ | f/e/)(^a/e/)(b/e/) | %58
"_cresc." .d'/(e/f/e/)(c'/e/ | f/e/)(b/e/)(a/e/) | .^g/(e/f/e/)(d/e/ | f/e/)(c/e/)(B/^d/) | %62
!>(! (A/=d/e/d/)(^G/d/ | e/d/)(c/E/)(B/E/)!>)! |!p! A(e/f/e/a/ |!<(! ^g/B/d/e/g/b/)!<)! | %66
!>(! (a/f'/e'/c'/a/!>)!e/ | c/b/a/e/c/A/) | .B/(E/F/E/)(d/E/) | (c/A/)(B/G/)(A/F/) | %70
 .^G/!<(!(E/G/B/d/e/!<)! |!>(! =g/f/e/d/c/B/)!>)! |!p! .A(e/f/e/a/ |!<(! ^g/B/d/e/g/b/)!<)! | %74
!>(! (a/f'/e'/c'/a/!>)!e/ | c/b/a/e/c/A/) | .G/!<(!(B/c/B/)(g/B/) | (^A/g/)(e/g/)(^d/!<)!^f/) | %78
 .e/!>(!.e/(^d/e/)(=d/e/) | (^c/e/)(=c/e/)!>)!(B/e/) | .A(e/f/e/a/ |!<(! ^g/B/d/e/g/b/)!<)! | %82
!>(! (a/f'/e'/c'/a/e/!>)! | c/b/a/e/c/A/) | .B/(E/F/E/)(d/E/) | (c/A/)(B/G/)(A/F/) | %86
!<(! .^G/(E/G/B/d/e/!<)! |!>(! =g/f/e/d/c/B/)!>)! |!p! .A(e/f/e/a/ |!<(! ^g/B/d/e/g/b/)!<)! | %90
 (a/f'/e'/^c'/a/e/ |"_cresc." _b/a/g/e/^c/A/) | .d/(F/G/F/)(=c/E/ | F/E/)(^F/E/)(^G/E/) | %94
!<(! (A/E/)(c/A/)(e/c/)!<)! |!f! a z z |] %96

